video-2d.svg

<svg fill="currentColor" viewBox="0 0 24 24"><path d="M13 7h3c1.66 0 3 1.34 3 3v4c0 1.66-1.34 3-3 3h-3zm3 8c.55 0 1-.45 1-1v-4c0-.55-.45-1-1-1h-1v6zM5 7h4a2 2 0 0 1 2 2v2c0 1.11-.89 2-2 2H7v2h4v2H5v-4c0-1.1.9-2 2-2h2V9H5z"/></svg>

<svg  viewBox="0 0 24 24" fill="currentColor"><path  d="M13 7H16C17.66 7 19 8.34 19 10V14C19 15.66 17.66 17 16 17H13V7M16 15C16.55 15 17 14.55 17 14V10C17 9.45 16.55 9 16 9H15V15H16M5 7H9C10.11 7 11 7.9 11 9V11C11 12.11 10.11 13 9 13H7V15H11V17H5V13C5 11.9 5.9 11 7 11H9V9H5V7Z"/></svg>
